X: 1
T: Maid Of Athens, The
M: 4/4
L: 1/8
R: reel
K: Dmaj
FAAF GFED | FAAc dBAG | FAAF GFGB | AFdF EFDG | 
FAAF GFED | FAAc dBAG | FAAF GFGB | AFdF E2 D2 |
fddf geeg | fded cAAd | fddf geeg | fdec d2 de |
fddf geeg | fded cA AG | FAAF GFGB | AFdF E2 D2 |
